X:415
T: LUSTIG GERUESTET
N: F0762
O: Europa, Mitteleuropa, Deutschland
R: Geselligkeits -, Bundes - Lied, Rundgesang
M: 4/4
L: 1/8
K: E
 | e2BBe2BB | AGFEB4 |
E2GAB2BB | cBAGG2F2 |
e2eee2EE | EGBcBAG2 |
B2BBB2cA | G2AFE4 |
E2GAB2BB | cBAGG2F2 |
e2eee2EE | EGBcBAG2 |
B2BBB2cA | G2AFE4

@@@ Tune index: 5846
